X:1
T:Salvation’s Plan, 88.66.10.10
T:Salvation’s Plan, 88.66.10.10
T:Scott Werdebaugh, 2018
T:© 2018 Scott Werdebaugh &amp; New Heart Music. May freely copy &amp; use for Christian worship &amp; devotion with no alterations. All other rights reserved.
C:Scott Werdebaugh, 2018
Z:© 2018 Scott Werdebaugh & New Heart Music. May freely copy & use for
Z:Christian worship & devotion with no alterations. All other rights reserved.
%%score ( 1 2 ) 3
L:1/8
Q:1/4=110
M:4/4
K:C
V:1 treble 
V:2 treble 
V:3 bass 
V:1
"^Reflectively" [EG]2 | [CE]3 [EG] [CA]3 [EG] | [DG]3 [DF] [CE]2 z [CE] | [B,D]2 C2 [CF]2 [CE]2 | %4
 [CA]3 [DB] [Ec]2 z [Ec] | [Ge]3 [Fd] [Ec]3 [DB] | [Ec]4 z2 [Ec]2 | [DB]2 [Ec]2 [DB]2 [CA]2 | %8
 [DG]4 z2 [FG]2 | [Ec]3 [DB] [CA]3 [DG] | [CA]2 [DB]2 [Ec]2 [Ec]2 | [DB]4 z2 [DB]2 | %12
 [Ec]2 [EG]2 [CF]2 [CE]2 | [B,D]2 [DG]2 [DA]2 [DB]2 | [Ec]4 z2 |] %15
V:2
 x2 | x8 | x8 | x2 C2 x4 | x8 | x8 | x8 | x8 | x8 | x8 | x8 | x8 | x8 | x8 | x6 |] %15
V:3
 [C,C]2 | [C,G,]3 [C,C] [F,,F,]3 [C,C] | [G,,B,]3 [G,,B,] [C,G,]2 z [C,G,] | %3
 [G,,G,]2 [E,G,]2 [F,A,]2 [C,G,]2 | [F,,F,]3 [G,,G,] [C,G,]2 z [C,G,] | %5
 [C,C]3 [G,,B,] [C,G,]3 [G,,G,] | [C,G,]4 z2 [C,G,]2 | [G,,G,]2 [C,G,]2 [G,,G,]2 [F,,F,]2 | %8
 [G,,B,]4 z2 [G,,B,]2 | [C,G,]3 [G,,G,] [F,,F,]3 [G,,B,] | [F,,F,]2 [G,,G,]2 [C,G,]2 [C,G,]2 | %11
 [G,,G,]4 z2 [G,,G,]2 | [C,G,]2 [C,C]2 [F,A,]2 [C,G,]2 | [G,,G,]2 [G,,B,]2 [G,,A,]2 [G,,G,]2 | %14
 [C,G,]4 z2 |] %15

